third_party/noto/noto_2/emoji_u1f3eb.svg

<svg enable-background="new 0 0 128 128" version="1.1" viewBox="0 0 128 128" xmlns="http://www.w3.org/2000/svg"><path d="m6.33 66.37v57.72h116.06v-57.94s-23.22-16.02-24.29-16.17-32.26-28.7-32.26-28.7l-34.38 27.73-25.13 17.36z" fill="#F8C778"/><polygon points="6.33 66.31 33.73 66.31 33.7 124.03 38.25 124.03 38.28 53.76 65.16 30.1 92.28 54.9 92.21 124.03 96.47 124.03 96.54 65.98 122.39 66.16 122.39 62.71 98.81 50.07 67.27 22.36 32.45 49.5 6.35 63.01" fill="#F5B03F"/><path d="m13.1 42.57c-0.18 0.29-7.15 19.51-7.28 19.91s0.2 0.87 1 0.94 28.39 0 28.39 0l-0.08-11.78s29.62-26.66 29.95-26.66 30.18 27.35 30.25 27.76c0.07 0.4 0.13 10.22 0.13 10.22s26.25 0.2 26.79 0.27 0.67-0.67 0.2-2.07-5.95-18.3-6.35-18.57-22.04-0.27-22.04-0.27-27.11-24.96-27.58-25.36-1.87-1.01-3.11 0.23c-1.09 1.09-28.13 25.33-28.13 25.33s-21.94-0.29-22.14 0.05z" fill="#A62714"/><path d="m43.91 80.59-0.01 43.48h42.36v-43.48s-42.35-0.11-42.35 0z" fill="#CF6150"/><path d="m3.64 124.25c0.37 0.56 4.69 0.3 16.2 0.36s14.86 0.04 15.46-0.08c0.59-0.12 1.07-2.71 0.68-4.96-0.43-2.47-1.91-4.8-4.31-5.55-3.21-1-5.19-0.08-6.73-0.62-1.54-0.53-6.05-2.79-10.62-2.49-3.92 0.25-6.71 1.4-9.14 4.98-2.61 3.85-1.78 8-1.54 8.36z" fill="#7DB240"/><path d="m126.09 124.01c0.59-0.41 0.54-11.77-7.36-12.64-5.93-0.65-7.48 1.9-8.48 1.9-1.01 0-4.85-1.87-10.15 0.18-6.59 2.55-6.47 9.97-6.23 10.68s7.06 0.53 16.43 0.59 15.02-0.17 15.79-0.71z" fill="#7DB240"/><path d="m11.57 69.63h18.69v15.05h-18.94s0.12-14.93 0.25-15.05z" fill="#3E737C"/><path d="m11.32 91.71h18.61v14.56h-18.77c0 0.01 0.08-14.64 0.16-14.56z" fill="#3E737C"/><path d="m14.4 72.38h12.7v9.95h-12.86s-0.09-9.87 0.16-9.95z" fill="#A7D0D7"/><path d="m13.83 94.14h13.43v9.63h-13.43v-9.63z" fill="#A7D0D7"/><path d="m99.67 70.52h18.61v14.97h-18.69s0.08-15.21 0.08-14.97z" fill="#3E737C"/><path d="m102.26 73.11h13.35v9.71h-13.35v-9.71z" fill="#A7D0D7"/><path d="m99.43 92.6h18.53v14.16h-18.53s-0.12-14.03 0-14.16z" fill="#3E737C"/><path d="m102.34 95.19v8.74h12.7v-8.82s-12.82-0.04-12.7 0.08z" fill="#A7D0D7"/><path d="m50.06 124.09-0.01-38.76h30.5v38.76h-30.49z" fill="#3E737C"/><path d="m76.94 93.24v-5.1h-23.12v5.1h23.12z" fill="#A7D0D7"/><g fill="#A7D0D7"><rect x="53.82" y="95.79" width="23.12" height="13.27"/><rect x="53.82" y="111.79" width="23.12" height="6.94"/></g><path d="m64.28 94.65v26.11h2.64v-26.38s-2.46 0.27-2.64 0.27z" fill="#3E737C"/><path d="m64.46 40.06c-10.37 0.09-17.32 7.82-16.79 17.76 0.51 9.66 8.18 15.72 17.05 15.47 9.32-0.26 16-7.74 16.26-16.61s-6.94-16.7-16.52-16.62z" fill="#3E737C"/><path d="m64.2 43.05c-8.44 0-14.07 6.42-13.71 14.15 0.34 7.46 5.36 13.1 13.98 13.1 7.91 0 13.11-6.5 13.27-13.19 0.17-7.3-5.28-14.06-13.54-14.06z" fill="#fff"/><path d="m61.74 57.46s-4.9 4.12-5.17 4.6-0.26 1.27 0.39 1.8c0.66 0.53 1.31 0.22 1.71-0.09 0.39-0.31 5.56-4.55 5.56-4.55s1.67-0.03 2.06-2.01c0.31-1.58-0.83-2.32-0.83-2.32s-0.18-9.46-0.26-10.16c-0.07-0.52-0.61-1.01-1.09-0.96-0.48 0.04-0.96 0.31-1.01 1.09s-0.1 9.84-0.1 9.84-0.7 0.26-1.09 1.01c-0.39 0.74-0.17 1.75-0.17 1.75z" fill="#2F2F2F"/></svg>

<?xml version="1.0" encoding="utf-8"?>
<!-- Generator: Adobe Illustrator 25.2.3, SVG Export Plug-In . SVG Version: 6.00 Build 0)  -->
<svg version="1.1" id="Layer_2" xmlns="http://www.w3.org/2000/svg" xmlns:xlink="http://www.w3.org/1999/xlink" x="0px" y="0px"
	 viewBox="0 0 128 128" style="enable-background:new 0 0 128 128;" xml:space="preserve">
<path style="fill:#F8C778;" d="M6.33,66.37v57.72h116.06l0-57.94c0,0-23.22-16.02-24.29-16.17c-1.07-0.15-32.26-28.7-32.26-28.7
	L31.46,49.01L6.33,66.37z"/>
<polygon style="fill:#F5B03F;" points="6.33,66.31 33.73,66.31 33.7,124.03 38.25,124.03 38.28,53.76 65.16,30.1 92.28,54.9 
	92.21,124.03 96.47,124.03 96.54,65.98 122.39,66.16 122.39,62.71 98.81,50.07 67.27,22.36 32.45,49.5 6.35,63.01 "/>
<path style="fill:#A62714;" d="M13.1,42.57c-0.18,0.29-7.15,19.51-7.28,19.91c-0.13,0.4,0.2,0.87,1,0.94c0.8,0.07,28.39,0,28.39,0
	l-0.08-11.78c0,0,29.62-26.66,29.95-26.66s30.18,27.35,30.25,27.76c0.07,0.4,0.13,10.22,0.13,10.22s26.25,0.2,26.79,0.27
	s0.67-0.67,0.2-2.07c-0.47-1.4-5.95-18.3-6.35-18.57c-0.4-0.27-22.04-0.27-22.04-0.27S66.95,17.36,66.48,16.96
	c-0.47-0.4-1.87-1.01-3.11,0.23c-1.09,1.09-28.13,25.33-28.13,25.33S13.3,42.23,13.1,42.57z"/>
<path style="fill:#CF6150;" d="M43.91,80.59l-0.01,43.48l42.36,0l0-43.48C86.26,80.59,43.91,80.48,43.91,80.59z"/>
<path style="fill:#7DB240;" d="M3.64,124.25c0.37,0.56,4.69,0.3,16.2,0.36c11.51,0.06,14.86,0.04,15.46-0.08
	c0.59-0.12,1.07-2.71,0.68-4.96c-0.43-2.47-1.91-4.8-4.31-5.55c-3.21-1-5.19-0.08-6.73-0.62c-1.54-0.53-6.05-2.79-10.62-2.49
	c-3.92,0.25-6.71,1.4-9.14,4.98C2.57,119.74,3.4,123.89,3.64,124.25z"/>
<path style="fill:#7DB240;" d="M126.09,124.01c0.59-0.41,0.54-11.77-7.36-12.64c-5.93-0.65-7.48,1.9-8.48,1.9
	c-1.01,0-4.85-1.87-10.15,0.18c-6.59,2.55-6.47,9.97-6.23,10.68s7.06,0.53,16.43,0.59S125.32,124.55,126.09,124.01z"/>
<path style="fill:#3E737C;" d="M11.57,69.63h18.69v15.05H11.32C11.32,84.68,11.44,69.75,11.57,69.63z"/>
<path style="fill:#3E737C;" d="M11.32,91.71h18.61v14.56H11.16C11.16,106.28,11.24,91.63,11.32,91.71z"/>
<path style="fill:#A7D0D7;" d="M14.4,72.38h12.7v9.95H14.24C14.24,82.33,14.15,72.46,14.4,72.38z"/>
<path style="fill:#A7D0D7;" d="M13.83,94.14h13.43v9.63H13.83C13.83,103.77,13.83,94.06,13.83,94.14z"/>
<path style="fill:#3E737C;" d="M99.67,70.52h18.61v14.97H99.59C99.59,85.49,99.67,70.28,99.67,70.52z"/>
<path style="fill:#A7D0D7;" d="M102.26,73.11h13.35v9.71h-13.35C102.26,82.82,102.26,72.94,102.26,73.11z"/>
<path style="fill:#3E737C;" d="M99.43,92.6h18.53v14.16H99.43C99.43,106.76,99.31,92.73,99.43,92.6z"/>
<path style="fill:#A7D0D7;" d="M102.34,95.19v8.74h12.7v-8.82C115.04,95.11,102.22,95.07,102.34,95.19z"/>
<path style="fill:#3E737C;" d="M50.06,124.09l-0.01-38.76h30.5l0,38.76C80.55,124.09,50.14,124.09,50.06,124.09z"/>
<path style="fill:#A7D0D7;" d="M76.94,93.24v-5.1c0,0-23.21,0-23.12,0v5.1H76.94z"/>
<g>
	<rect x="53.82" y="95.79" style="fill:#A7D0D7;" width="23.12" height="13.27"/>
	<rect x="53.82" y="111.79" style="fill:#A7D0D7;" width="23.12" height="6.94"/>
</g>
<path style="fill:#3E737C;" d="M64.28,94.65v26.11h2.64V94.38C66.92,94.38,64.46,94.65,64.28,94.65z"/>
<path style="fill:#3E737C;" d="M64.46,40.06c-10.37,0.09-17.32,7.82-16.79,17.76c0.51,9.66,8.18,15.72,17.05,15.47
	c9.32-0.26,16-7.74,16.26-16.61S74.04,39.98,64.46,40.06z"/>
<path style="fill:#FFFFFF;" d="M64.2,43.05c-8.44,0-14.07,6.42-13.71,14.15c0.34,7.46,5.36,13.1,13.98,13.1
	c7.91,0,13.11-6.5,13.27-13.19C77.91,49.81,72.46,43.05,64.2,43.05z"/>
<path style="fill:#2F2F2F;" d="M61.74,57.46c0,0-4.9,4.12-5.17,4.6s-0.26,1.27,0.39,1.8c0.66,0.53,1.31,0.22,1.71-0.09
	c0.39-0.31,5.56-4.55,5.56-4.55s1.67-0.03,2.06-2.01c0.31-1.58-0.83-2.32-0.83-2.32s-0.18-9.46-0.26-10.16
	c-0.07-0.52-0.61-1.01-1.09-0.96c-0.48,0.04-0.96,0.31-1.01,1.09C63.05,45.64,63,54.7,63,54.7s-0.7,0.26-1.09,1.01
	C61.52,56.45,61.74,57.46,61.74,57.46z"/>
</svg>
